icons/folder-plus.svg

<svg width="24" height="24" viewBox="0 0 24 24" fill="none" xmlns="http://www.w3.org/2000/svg">
<path fill-rule="evenodd" clip-rule="evenodd" d="M2 4C2 3.44772 2.44772 3 3 3H10C10.2652 3 10.5196 3.10536 10.7071 3.29289L12.4142 5H21C21.5523 5 22 5.44772 22 6V20C22 20.5523 21.5523 21 21 21H3C2.44772 21 2 20.5523 2 20V4ZM4 5V19H20V7H12C11.7348 7 11.4804 6.89464 11.2929 6.70711L9.58579 5H4ZM12 9C12.5523 9 13 9.44772 13 10V12H15C15.5523 12 16 12.4477 16 13C16 13.5523 15.5523 14 15 14H13V16C13 16.5523 12.5523 17 12 17C11.4477 17 11 16.5523 11 16V14H9C8.44772 14 8 13.5523 8 13C8 12.4477 8.44772 12 9 12H11V10C11 9.44772 11.4477 9 12 9Z" fill="black"/>
</svg>

<svg
  width="24"
  height="24"
  viewBox="0 0 24 24"
  xmlns="http://www.w3.org/2000/svg"
>
  <path
    fill-rule="evenodd"
    clip-rule="evenodd"
    d="M2 4a1 1 0 0 1 1-1h7a1 1 0 0 1 .707.293L12.414 5H21a1 1 0 0 1 1 1v14a1 1 0 0 1-1 1H3a1 1 0 0 1-1-1V4zm2 1v14h16V7h-8a1 1 0 0 1-.707-.293L9.586 5H4zm8 4a1 1 0 0 1 1 1v2h2a1 1 0 1 1 0 2h-2v2a1 1 0 1 1-2 0v-2H9a1 1 0 1 1 0-2h2v-2a1 1 0 0 1 1-1z"
  />
</svg>
